X:1
T:Title
%%score ( 1 2 ) { 3 | 4 }
L:1/8
Q:1/4=117
M:4/4
K:F
V:1 treble nm="Grand Piano, Soprano"
V:2 treble 
V:3 bass nm="Choir Pad, From the Cyber Hymnal™"
V:4 bass 
V:1
 C4 F2 F2 | A2 F2 c4 | [FA]4 [FB]2 [FB]2 | [FA]2 [EG]2 [FA]4 | C4 [CF]2 [CF]2 | [CA]2 F2 [Ec]4 | %6
w: By~Anonymous,~1856 * *||||||
 G4 [FA]2 [Ad]2 | [Gc]2 [F=B]2 [Ec]4 | z2 C2 E4 | G4 B4 | z2 C2 F4 | A4 c4 | z2 F2 [Fd]4 | %13
w: |||||||
 f2 d2 [Ec]4- | [Ec]2 [FA]2 [FB]4 | [EG]4 F4- | F4 z4 |] %17
w: ||||
V:2
 x8 | x8 | x8 | x8 | x8 | x8 | x8 | x8 | x8 | x8 | x8 | x8 | x8 | F4 z4 | x8 | x8 | x8 |] %17
V:3
 C,4 F,2 F,2 | A,2 F,2[K:treble] C4 | C4 D2 D2 | C2 C2 C4 | A,4 A,2 A,2 | C2 A,2 G,4 | C4 C2 F2 | %7
 E2 D2 C4 | z2[K:bass] C,2 E,4 | G,4 B,4 | z2 C,2 F,4 | A,4 C4 | z2 F,2 B,4 | D2 B,2 G,4- | %14
 G,2 F,2 D4 | C2 B,2 A,4- | A,4 z4 |] %17
V:4
 z8 | z4 C,4 | F,4 B,,2 B,,2 | C,2 C,2 F,4 | F,4 F,2 F,2 | F,2 F,2 C,4 | E,4 F,2 D,2 | %7
 G,2 G,,2 C,4 | z8 | z8 | z8 | z8 | z4 B,,4 | B,,4 C,4- | C,2 D,2 B,,4 | C,4 F,4- | F,4 z4 |] %17

